X:296
T:Home Sweet Home. JaW.296
M:2/4
L:1/8
Q:1/2=70
S:James Winder Ms, Lancashire, 1835-41
R:.Air
O:England
A:Wyresdale,Lancashire
Z:vmp.Chris Partington, Aug 2004
K:G
G2|B>c c>d|d2Bz/B/|c>BcA|B3(G/A/)|B>c c>d|(d2B) d|c>B cA|G2:|!
d2|g>fe>d|d2B d|cBcA|B3d|g>fed|(d2B) d|dc A>B|G4|!
d4|”sic”(cA)|G A|B d|g>fe>d|d2 B d|(de) (c/B/)A GA|G4|]

